X:3732
T:Lo Rossinhol
O:england
C: MCTB
M:3/4
L:1/4
K:C
Gcd|e2e|e>d e/f/|e3|\
gfe|d2g|d2e|c3-|c3:|\
|:def|g2g|
agf|e3|1 ede|gfe|\
d>cd/e/|d3-|d3:|2 def|\
e3|ded|c3-|c3||


